CSETWebApi/CSETWeb_Api/CSETWeb_ApiCore/Diagram/src/main/webapp/img/lib/mscae/Cloud_Service.svg

<svg xmlns="http://www.w3.org/2000/svg" width="50" height="42.434"><path d="M43.34 14.66a12.52 12.52 0 0 0 .291-2.643C43.63 5.4 38.232 0 31.595 0a12 12 0 0 0-10.81 6.736 8.66 8.66 0 0 0-6.114-2.523 8.65 8.65 0 0 0-8.638 8.637c0 .646.072 1.298.218 1.968C2.328 16.416 0 19.73 0 23.763 0 29.2 4.443 33.46 10.113 33.46h.646c.1 4.968 4.18 8.975 9.164 8.975 3.355 0 6.393-1.81 7.996-4.68a6.65 6.65 0 0 0 4.36 1.628c3.42 0 6.25-2.59 6.65-5.922h.96c5.67 0 10.1-4.26 10.1-9.696 0-4.2-2.544-7.654-6.66-9.104" fill="#3e3e3e"/><path d="M39.437 19.192l.736-1.743-.213-.184-1.607-1.396.008-1.4 1.812-1.62-.713-1.753-2.405.172-.992-1.006.135-2.428-1.742-.735-1.58 1.82-1.412-.01-1.62-1.8-1.752.7.17 2.406-1.004 1-2.428-.135-.736 1.743.213.184 1.608 1.397-.01 1.412-1.8 1.62.7 1.752.28-.02L27.2 19l.992 1.005-.135 2.426 1.743.736.184-.213 1.396-1.608 1.412.01 1.62 1.812 1.752-.712-.02-.282-.15-2.124L37 19.058l2.426.135zm-8.8-.5a3.872 3.872 0 1 1 3.01-7.134c1.97.832 2.893 3.103 2.062 5.073a3.87 3.87 0 0 1-5.072 2.061m-2.27 9.256v-1.893l-.266-.086-2.025-.663-.54-1.304 1.04-2.198-1.336-1.337-2.15 1.1-1.305-.54-.818-2.3-1.9-.002-.087.27-.663 2.023-1.304.54-2.198-1.04-1.337 1.337 1.1 2.15-.54 1.302-2.3.82-.001 1.9.267.088 2.025.66.54 1.306-1.04 2.196 1.336 1.34.25-.128 1.9-.964 1.302.54.82 2.3 1.9.001.087-.266.663-2.025 1.305-.54 2.196 1.04 1.34-1.336-.127-.25-.964-1.9.542-1.305 2.3-.817zm-8.313 2.96c-2.138-.001-3.87-1.736-3.87-3.874s1.736-3.87 3.875-3.87a3.87 3.87 0 0 1 3.869 3.874c-.001 2.138-1.736 3.87-3.875 3.87" fill="#fff"/><path d="M34.45 16.103c-.54 1.28-2.014 1.878-3.293 1.338s-1.878-2.014-1.338-3.293 2.014-1.878 3.293-1.338 1.877 2.014 1.338 3.293m-11.9 10.934c-.001 1.4-1.128 2.514-2.515 2.513s-2.512-1.127-2.5-2.516 1.127-2.513 2.513-2.512 2.514 1.127 2.513 2.515" fill="#b8d432"/></svg>

<?xml version="1.0" encoding="UTF-8" standalone="no"?>
<svg
   xmlns:dc="http://purl.org/dc/elements/1.1/"
   xmlns:cc="http://creativecommons.org/ns#"
   xmlns:rdf="http://www.w3.org/1999/02/22-rdf-syntax-ns#"
   xmlns:svg="http://www.w3.org/2000/svg"
   xmlns="http://www.w3.org/2000/svg"
   xmlns:sodipodi="http://sodipodi.sourceforge.net/DTD/sodipodi-0.dtd"
   xmlns:inkscape="http://www.inkscape.org/namespaces/inkscape"
   version="1.1"
   id="Layer_1"
   x="0px"
   y="0px"
   width="50"
   height="42.433998"
   viewBox="0 0 50 42.433998"
   enable-background="new 0 0 50 50"
   xml:space="preserve"
   inkscape:version="0.91 r13725"
   sodipodi:docname="Azure Cloud Service_COLOR.svg"><metadata
     id="metadata17"><rdf:RDF><cc:Work
         rdf:about=""><dc:format>image/svg+xml</dc:format><dc:type
           rdf:resource="http://purl.org/dc/dcmitype/StillImage" /><dc:title></dc:title></cc:Work></rdf:RDF></metadata><defs
     id="defs15" /><sodipodi:namedview
     pagecolor="#ffffff"
     bordercolor="#666666"
     borderopacity="1"
     objecttolerance="10"
     gridtolerance="10"
     guidetolerance="10"
     inkscape:pageopacity="0"
     inkscape:pageshadow="2"
     inkscape:window-width="1920"
     inkscape:window-height="1018"
     id="namedview13"
     showgrid="false"
     fit-margin-top="0"
     fit-margin-left="0"
     fit-margin-right="0"
     fit-margin-bottom="0"
     inkscape:zoom="10.363697"
     inkscape:cx="17.089658"
     inkscape:cy="12.22544"
     inkscape:window-x="-8"
     inkscape:window-y="-8"
     inkscape:window-maximized="1"
     inkscape:current-layer="Layer_1" /><path
     d="M 43.339,14.659 C 43.534,13.748 43.63,12.88 43.63,12.016 43.63,5.39 38.232,0 31.595,0 26.964,0 22.795,2.622 20.785,6.736 19.166,5.126 16.976,4.213 14.671,4.213 9.908,4.213 6.033,8.088 6.033,12.85 6.033,13.496 6.105,14.148 6.251,14.818 2.328,16.416 0,19.731 0,23.763 0,29.2 4.443,33.459 10.113,33.459 L 10.759,33.459 C 10.869,38.427 14.939,42.434 19.923,42.434 23.278,42.434 26.316,40.625 27.919,37.753 29.125,38.798 30.667,39.381 32.279,39.381 35.699,39.381 38.528,36.79 38.929,33.459 L 39.89,33.459 C 45.56,33.459 50,29.2 50,23.763 50,19.564 47.456,16.109 43.339,14.659"
     id="path3"
     inkscape:connector-curvature="0"
     style="fill:#3e3e3e" /><path
     d="M 39.437,19.192 40.173,17.449 39.96,17.265 38.353,15.869 38.361,14.458 40.173,12.838 39.46,11.085 39.181,11.104 37.056,11.256 36.064,10.25 36.199,7.822 34.457,7.087 34.273,7.299 32.876,8.908 31.464,8.898 29.843,7.088 28.091,7.799 28.111,8.08 28.261,10.205 27.257,11.195 24.829,11.06 24.093,12.803 24.306,12.987 25.914,14.384 25.905,15.796 24.095,17.417 24.806,19.169 25.087,19.148 27.21,18.999 28.202,20.004 28.067,22.43 29.81,23.166 29.994,22.953 31.39,21.345 32.802,21.355 34.423,23.167 36.175,22.455 36.155,22.173 36.005,20.049 37.011,19.057 39.437,19.192 Z M 30.628,18.693 C 28.657,17.862 27.734,15.591 28.566,13.622 29.399,11.65 31.668,10.728 33.638,11.559 35.608,12.391 36.531,14.662 35.7,16.632 34.868,18.602 32.599,19.525 30.628,18.693"
     id="path5"
     inkscape:connector-curvature="0"
     style="fill:#ffffff" /><path
     d="M 28.357,27.948 28.357,26.055 28.091,25.969 26.066,25.306 25.527,24.002 26.567,21.804 25.231,20.467 24.98,20.594 23.081,21.556 21.776,21.015 20.958,18.726 19.067,18.724 18.98,18.993 18.317,21.016 17.013,21.555 14.815,20.516 13.478,21.853 13.605,22.104 14.567,24.004 14.027,25.306 11.737,26.125 11.736,28.016 12.003,28.104 14.028,28.765 14.567,30.071 13.527,32.267 14.863,33.607 15.114,33.479 17.015,32.515 18.317,33.056 19.136,35.345 21.027,35.346 21.114,35.08 21.777,33.055 23.082,32.516 25.278,33.556 26.617,32.22 26.49,31.969 25.526,30.07 26.068,28.765 28.357,27.948 Z M 20.044,30.908 C 17.906,30.907 16.175,29.172 16.175,27.034 16.177,24.895 17.911,23.164 20.05,23.165 22.189,23.166 23.921,24.9 23.919,27.039 23.918,29.177 22.183,30.909 20.044,30.908"
     id="path7"
     inkscape:connector-curvature="0"
     style="fill:#ffffff" /><path
     d="M 34.449,16.103 C 33.91,17.382 32.435,17.981 31.156,17.441 29.877,16.901 29.278,15.427 29.818,14.148 30.358,12.871 31.832,12.27 33.111,12.81 34.389,13.35 34.988,14.824 34.449,16.103"
     id="path9"
     inkscape:connector-curvature="0"
     style="fill:#b8d432" /><path
     d="M 22.561,27.037 C 22.56,28.426 21.433,29.551 20.046,29.55 18.658,29.549 17.534,28.423 17.535,27.034 17.536,25.646 18.662,24.521 20.048,24.522 21.437,24.523 22.562,25.649 22.561,27.037"
     id="path11"
     inkscape:connector-curvature="0"
     style="fill:#b8d432" /></svg>
